flaticon/productivity-and-development/wallet.svg

<svg xmlns="http://www.w3.org/2000/svg" width="32" height="32" viewBox="0 0 24 24">
    <path d="M 23.488281 2.59375 L 0.511719 2.59375 C 0.230469 2.59375 0 2.824219 0 3.105469 L 0 20.894531 C 0 21.175781 0.230469 21.40625 0.511719 21.40625 L 23.488281 21.40625 C 23.769531 21.40625 24 21.175781 24 20.894531 L 24 3.105469 C 24 2.824219 23.769531 2.59375 23.488281 2.59375 Z M 22.980469 15.789062 L 19.191406 15.789062 C 17.101562 15.789062 15.402344 14.089844 15.402344 12 C 15.402344 9.910156 17.101562 8.210938 19.191406 8.210938 L 22.980469 8.210938 Z M 1.019531 20.382812 L 1.019531 3.617188 L 22.980469 3.617188 L 22.980469 7.191406 L 19.191406 7.191406 C 16.539062 7.191406 14.382812 9.347656 14.382812 12 C 14.382812 14.652344 16.539062 16.808594 19.191406 16.808594 L 22.980469 16.808594 L 22.980469 20.382812 Z M 1.019531 20.382812"/>
    <path d="M 17.207031 12 C 17.207031 13.09375 18.097656 13.984375 19.191406 13.984375 C 20.285156 13.984375 21.175781 13.09375 21.175781 12 C 21.175781 10.90625 20.285156 10.015625 19.191406 10.015625 C 18.097656 10.015625 17.207031 10.90625 17.207031 12 Z M 19.191406 11.035156 C 19.722656 11.035156 20.152344 11.46875 20.152344 12 C 20.152344 12.53125 19.722656 12.964844 19.191406 12.964844 C 18.660156 12.964844 18.226562 12.53125 18.226562 12 C 18.226562 11.46875 18.660156 11.035156 19.191406 11.035156 Z M 19.191406 11.035156"/>
</svg>

<svg xmlns="http://www.w3.org/2000/svg" width="32" height="32" viewBox="0 0 24 24">
    <path d="M23.488 2.594H.512A.513.513 0 0 0 0 3.105v17.79c0 .28.23.511.512.511h22.976c.282 0 .512-.23.512-.511V3.105a.513.513 0 0 0-.512-.511zm-.508 13.195h-3.789c-2.09 0-3.789-1.7-3.789-3.789 0-2.09 1.7-3.79 3.79-3.79h3.788zM1.02 20.383V3.617h21.96v3.574h-3.789A4.813 4.813 0 0 0 14.383 12a4.813 4.813 0 0 0 4.808 4.809h3.79v3.574zm0 0"/>
    <path d="M17.207 12c0 1.094.89 1.984 1.984 1.984 1.094 0 1.985-.89 1.985-1.984 0-1.094-.89-1.984-1.985-1.984-1.093 0-1.984.89-1.984 1.984zm1.984-.965c.532 0 .961.434.961.965a.964.964 0 1 1-1.925 0c0-.531.433-.965.964-.965zm0 0"/>
</svg>
